X:2
Q:1/4=90     %Tempo
P:B4
M:4/4     %Meter
L:1/8     %
K:C
P:B
%%MIDI program 109
%%MIDI gchord fcffcfcz
%%MIDI chordprog 105
%%MIDI chordvol 60
%%MIDI bassprog 32
%%MIDI bassvol 127
|: "F"FA/B/ c3/2B/ "Dm"AA "G"e//d//c/B/A/ | "F"FA/B/ "Dm"c3/2B/ "Em"AB "Am"E2 :|
|: "F"AB/c/ "Dm"A3/2B/ "G"f//e//d/c/B/ "C"c3/2B/ | "Am"cd/e/ "Em"ge g/e/d/c/ "C7+"e/c/B/G/ |
 "F"AB/c/ "Dm"A3/2B/ "G"f//e//d/c/B/ "C"c3/2B/ | "F"c/B/A/G/ "Dm"A/B/c/A/ "Em"E/A/E/G/ "Am"A2 :|
